X:615
T:Gae Bring to Me a Pint o' Wine
S:Loose sheet in my collection
Z:Nigel Gatherer
L:1/8
M:3/4
K:D
DD>F | A3 AG>A | d3 ef>g | f>e dB AD  | F E2 
DD>F | A3 AG>A | d3 efd  | gf  ed B>A | B d2 ||
df>e | d3 BAF  | E3 FD>F | A3    de>A | f d2
df>e | d3 BAF  | A3 efd  | gf  ed B>A | B d2 |]
